X:20
T:Knight of the Teapot
O:Australia
M:7/8
C:Bill Anderson
K:Cm
|:GFGEDB,C|DEFE2DC|DEFE2DC|B,CDEFG_A|
GFGEDB,C|DEFE2DC|DEFE2DC|B,G,B,C4:|
|:CB,CE2F2|GFGF2E2|DE2D2C2|B,G,F,G,3B,|
CB,CE2F2|FG2F2E2|DE2D2C2|B,G,B,C4:|
|:FG2F2E2|DE2D2C2|DEFE2DC|B,G,F,G,4|
B,G,B,C2D2|EF_GF2E2|CDEFEDC|B,G,B,C4:|
